libs/icons/src/svg/analytics-filled.svg

<svg width="16" height="16" viewBox="0 0 16 16" fill="none" xmlns="http://www.w3.org/2000/svg">
<path fill-rule="evenodd" clip-rule="evenodd" d="M9.33333 1.33333H6.66667C6.29867 1.33333 6 1.63199 6 1.99999V14C6 14.368 6.29867 14.6667 6.66667 14.6667H9.33333C9.70133 14.6667 10 14.368 10 14V1.99999C10 1.63199 9.70133 1.33333 9.33333 1.33333ZM3.33333 8.66666H0.666667C0.298667 8.66666 0 8.96533 0 9.33333V14C0 14.368 0.298667 14.6667 0.666667 14.6667H3.33333C3.70133 14.6667 4 14.368 4 14V9.33333C4 8.96533 3.70133 8.66666 3.33333 8.66666ZM12.6667 5.33333H15.3333C15.7013 5.33333 16 5.63199 16 5.99999V14C16 14.368 15.7013 14.6667 15.3333 14.6667H12.6667C12.2987 14.6667 12 14.368 12 14V5.99999C12 5.63199 12.2987 5.33333 12.6667 5.33333Z" fill="#202327"/>
</svg>

<svg xmlns="http://www.w3.org/2000/svg" viewBox="0 0 16 16" class="sageicon"><path fill-rule="evenodd" d="M9.333 1.333H6.667A.667.667 0 0 0 6 2v12c0 .368.299.667.667.667h2.666A.667.667 0 0 0 10 14V2a.667.667 0 0 0-.667-.667Zm-6 7.334H.667A.667.667 0 0 0 0 9.333V14c0 .368.299.667.667.667h2.666A.667.667 0 0 0 4 14V9.333a.667.667 0 0 0-.667-.666Zm9.334-3.334h2.666c.368 0 .667.299.667.667v8a.667.667 0 0 1-.667.667h-2.666A.667.667 0 0 1 12 14V6c0-.368.299-.667.667-.667Z"/></svg>
